!!!!SEGMENT: pl-kozmzk--mzk-m-151_stefani-jan--mazur-grany-w-teatrze-rozmaitosci.krn
!!!cenid: 18xx:3053
!!!COM: Stefani, Jan
!!!COM-rismid: pe30012827
!!!CDT: ~1746-1829/02/23
!!!CNT: Polish
!!!OTL: Mazur grany w Teatrze Rozmaitości
!!!PDT:
!!!AGN: Secular
!!!SMS-siglum: PL-KOZmzk
!!!SMS-shelfmark: mzk/m/151
!!!SMS-shelfwork: W
!!!SMS-variant:
!!!SMS-altvar:
!!!NIFC-rismid: 1001084214
!!!URL-scan: https://repozytorium.nifc.pl/islandora/object/pl-kozmzk%3A2157/datastream/PDF/view
!!!ONB-nifc:
!!!key:
**kern	**kern	**dynam
*part1	*part1	*part1
*staff2	*staff1	*
*Iempty	*Iempty	*
*I"Mazur	*I"Mazur	*
*>[A,A,B,B,C,B,B,C,D,D,E,E,A,A,B,B,C,B,B,C]	*[A,A,B,B,C,B,B,C,D,D,E,E,A,A,B,B,C,B,B,C]	*[A,A,B,B,C,B,B,C,D,D,E,E,A,A,B,B,C,B,B,C]
*>A	*>A	*>A
*clefF4	*clefG2	*
*k[b-e-a-]	*k[b-e-a-]	*
*A-:	*A-:	*
*M3/8	*M3/8	*
=1	=1	=1
*	*MM82	*
.	(8qaa-/	f
16B-LL 16G 16E-'\	16gg\LL)	.
16r	32r	.
.	(32ff#X\JJk	.
16B-J 16G 16E-'\	16gg\KL)	.
16r	16r	.
!	!LO:SIC:v:n=2:s=ffn	!
8B-J 8F 8D'\	8bb-J 8ff#'^<\	.
=2	=2	=2
.	(8qfff/	.
16cLL 16G 16C'\	16eee-\LL)	.
16r	32r	.
.	(32ddd\JJk	.
16cJ 16G 16C'\	16eee-\KL)	.
16r	16r	.
8fJ 8c 8F'\	8aanJ 8ee- 8cc'^<\	.
=3	=3	=3
!	!LO:TUP:a	!
16fKL 16d 16B-\	(24bb-\LL	.
.	24ccc\	.
16r	.	.
.	24ddd\JJ	.
!	!LO:TUP:a	!
8f 8e- 8c 8F\	24ff^<\LL	.
.	24gg\	.
.	24aan\JJ	.
16fJk 16d 16B-\	16bb-\)	.
16r	16r	.
=4	=4	=4
*	*^	*
*	*Xtuplet	*	*
!	!LO:TUP:a:problem:klamra łukowa	!	!
16f 16d 16B-\	24bb-\LL	8ryy	.
.	24ccc\	.	.
16r	.	.	.
.	24ddd\JJ	.	.
8fL 8e- 8c 8F\	24fff/LL	(8aan^\L	.
.	24eee-/	.	.
.	24ccc/JJ	.	.
16fJk 16d 16B-\	16bb-/	16bb-\Jk)	.
16r	16r	16ryy	.
*	*v	*v	*
!!LO:LB:g=original
=5	=5	=5
.	(8qaa-/	.
16B- 16G 16E-\	16gg\LL)	.
16r	32r	.
.	(32ff#X'\JJk	.
16B- 16G 16E-\	16gg\)	.
16r	16r	.
!	!LO:SIC:v:n=2:s=ffn	!
8B- 8F 8D\	8bb- 8ff#^<\	.
=6	=6	=6
.	8qfff/	.
16c 16G 16C\	16eee-\LL	.
16r	32r	.
.	(32ddd'\JJk	.
16c 16G 16C\	16eee-\)	.
16r	16r	.
8A- 8AA-\	8fff 8ccc 8aa-^<\	.
=7	=7	=7
*tremolo	*tuplet	*
!	!LO:TUP:a	!
8A-L 8F 8BB-\	(24dd\LL	.
.	24ee-\	.
.	24ff\JJ	.
!	!LO:TUP:a	!
8A- 8F 8BB-\	24gg\LL	.
.	24aa-\	.
.	24bb-\JJ	.
!	!LO:TUP:a	!
8A-J 8F 8BB-\	24bbn\LL	.
.	24ccc\	.
.	24ddd\JJ)	.
*Xtremolo	*	*
=8	=8	=8
16G 16E-\	16eee-\	.
16r	16r	.
4B- 4G 4E-\	4eee- 4gg 4ee-^<\	.
!LO:TX:b:t=[segno]	!LO:TX:a:t=[segno]	!
=9:|!|:	=9:|!|:	=9:|!|:
*>B	*>B	*>B
*clefG2	*	*
*tremolo	*	*
8fL 8d 8B-/	16ffLL 16dd'\	p
.	32r	.
!	!LO:S:s=2:note:problem:note-level slur	!
.	(32eenJK (>32cc#X\	.
8f 8d 8B-/	8ff) 8dd\)	.
8fJ 8d 8B-/	8ddJ 8b-\	.
*Xtremolo	*	*
!!LO:LB:g=original
=10	=10	=10
!	!LO:TUP:a:problem:klamra łukowa	!
16g-X 16e- 16B-/	24cc^<\LL	.
.	24dd\	.
16r	.	.
.	24ee-\JJ	.
8fL 8d 8B-/	8dd\L	.
8fJ 8d 8B-/	8b-\J	.
=11	=11	=11
*tremolo	*	*
.	(8qgg 8qee-/	.
8fL 8d 8B-/	16ffLL 16dd\)	.
.	32r	.
!	!LO:S:s=2:note:problem:note-level slur	!
.	(32eenJJk (>32cc#X'\	.
8f 8d 8B-/	8ffL) 8dd\)	.
8fJ 8d 8B-/	8ddJ 8b-'\	.
*Xtremolo	*	*
=12	=12	=12
*	*^	*
!	!LO:TUP:a:problem:klamra łukowa	!	!
16g-X 16e- 16B-/	24cc/LL	8an\	.
.	24dd/	.	.
16r	.	.	.
.	24cc/JJ	.	.
4f 4d 4B-/	4b-/	4b-\	.
*	*v	*v	*
=13:|!	=13:|!	=13:|!
*>C	*>C	*>C
*clefF4	*	*
.	(8qaa-/	f
16E- 16EE-/	16gg\LL)	.
16r	32r	.
.	(32ff#X'\JJk	.
16B- 16G 16E-\	16gg\)	.
16r	16r	.
!	!LO:SIC:v:n=2:s=ffn	!
8B- 8F 8D\	8bb- 8ff#^<\	.
=14	=14	=14
.	(<8qfff/	.
16c 16G 16C\	16eee-\LL)	.
16r	32raa	.
.	(32ddd\JJk	.
16c 16G 16C\	16eee-\)	.
16r	16r	.
8f 8c 8F\	8aan 8ee- 8cc'^<\	.
=15	=15	=15
!	!LO:TUP:a	!
16f 16d 16B-\	(24bb-\LL	.
.	24ccc\	.
16r	.	.
.	24ddd\JJ	.
!	!LO:TUP:a	!
8fL 8e- 8c 8F\	24ff\LL	.
.	24gg\	.
.	24aan\JJ	.
16fJk 16d 16B-\	16bb-\)	.
16r	16r	.
!!LO:LB:g=original
=16	=16	=16
*	*^	*
*	*Xtuplet	*	*
16f 16d 16B-\	(24bb-\LL	8ryy	.
.	24ccc\	.	.
16r	.	.	.
.	24ddd\JJ	.	.
8fL 8e- 8c 8F\	24fff/LL	8aan^\L	.
.	24eee-/	.	.
.	24ccc/JJ	.	.
16fJk 16d 16B-\	16bb-/)	16bb-\Jk	.
16r	16r	16ryy	.
*	*v	*v	*
=17	=17	=17
.	(<8qaa-X/	.
16E- 16EE-/	16gg\LL)	.
16r	32rdd	.
.	(32ff#X'\JJk	.
16B- 16G 16E-\	16gg\KL)	.
16r	16rff	.
!	!LO:SIC:v:n=2:s=ffn	!
8B- 8F 8D\	8bb-J 8ff#'^<\	.
=18	=18	=18
.	8qfff/	.
16c 16G 16C\	16eee-\LL	.
16r	32r	.
.	(32ddd\JJk	.
16c 16G 16C\	16eee-\)	.
16r	16r	.
8A- 8AA-\	8fff 8ccc 8aa-^<\	.
=19	=19	=19
*tremolo	*tuplet	*
!	!LO:TUP:a	!
8A-L 8F 8BB-\	(24dd\LL	.
.	24ee-\	.
.	24ff\JJ	.
!	!LO:TUP:a	!
8A- 8F 8BB-\	24gg\LL	.
.	24aa-\	.
.	24bb-\JJ	.
!	!LO:TUP:a	!
8A-J 8F 8BB-\	24bbn\LL	.
.	24ccc\	.
.	24ddd\JJ)	.
*Xtremolo	*	*
=20	=20	=20
16G 16E-\	16eee-\	.
16r	16r	.
!	!LO:TX:b:t=Fine.	!
4B- 4G 4E-\	4eee- 4gg 4ee-^<\	.
!LO:TX:b:t=[segno]	!LO:TX:a:t=[segno]	!
!!LO:PB:g=original
=21||	=21||	=21||
*>D	*>D	*>D
!!!OMD: Trio.
*k[b-e-a-d-]	*k[b-e-a-d-]	*
*M3/8	*M3/8	*
16CLL 16CC'/	16ccLL 16a- 16e-/	f
32r	32r	.
32C'/JJk	32ccJJk 32a- 32e-'/	p
8.E-'\L	8ccL 8a- 8e-'/	<
.	8ccJ 8a- 8e-'/	.
16Dn'\Jk	.	.
=22	=22	=22
16.E-'/LL	8ccL 8a- 8e-/	.
32C'/JJk	.	.
4AA-'/	8cc 8a- 8e-/	.
.	8ccJ 8a- 8e-/	[
=23	=23	=23
16A- 16AA-/	16ee-\LL	.
32r	32r	.
32c 32A- 32E-\	(32a-'\JJk	.
8cL 8A- 8E-\	8cc\L)	.
8cJ 8A- 8E-\	8ee-'\J	.
=24	=24	=24
*tremolo	*	*
8cL 8A- 8E-\	(32ff\KLL	.
.	16ee-\JJ)	.
.	32r	.
8c 8A- 8E-\	4cc'\	.
8cJ 8A- 8E-\	.	.
*Xtremolo	*	*
=25	=25	=25
*	*	*^
16E-LL 16EE-/	16dd-LL 16b- 16g 16e-/	f <	.
32r	32r	.	.
32G'/JJk	32dd-JJk 32b- 32g 32e-/	.	p
8.B-'\L	8dd-L 8b- 8g 8e-/	.	.
.	8dd-J 8b- 8g 8e-/	[	.
16An'\Jk	.	.	.
*	*	*v	*v
=26	=26	=26
*	*tremolo	*
16.B-'\LL	8ee-L 8b- 8g 8e-/	.
32G'\JJk	.	.
4E-'\	8ee- 8b- 8g 8e-/	.
.	8ee-J 8b- 8g 8e-/	.
*	*Xtremolo	*
!!LO:LB:g=original
=27	=27	=27
16E- 16EE-/	16b-/LL	.
32r	32r	.
32d- 32B- 32E-\	32e-'/JJk	.
8d-L 8B- 8E-\	8g'/L	.
8d-J 8B- 8E-\	8b-'/J	.
=28	=28	=28
16c 16A-\	(32dd-\KLL	.
.	16cc\JJ)	.
16r	.	.
.	32r	.
4c 4A-\	4a-/	.
=29	=29	=29
16AA-LL 16AAA-/	16ccLL 16a- 16e-'/	fp
32r	32r	.
32C/JJk	32ccJJk 32a- 32e-'/	<
8.E-\L	8ccL 8a- 8e-'/	.
.	8ccJ 8a- 8e-'/	.
16Dn\Jk	.	[[
=30	=30	=30
*	*tremolo	*
16.E-/LL	8ccL 8a- 8e-/	.
32C/JJk	.	.
4AA-/	8cc 8a- 8e-/	.
.	8ccJ 8a- 8e-/	.
*	*Xtremolo	*
=31	=31	=31
16A-LL 16AA-\	16ee-\LL	.
32r	32r	.
32cJJk 32A- 32E-\	(32a-\JJk	.
8cL 8A- 8E-\	8cc\L)	.
8cJ 8A- 8E-\	8ee-'\J	.
=32	=32	=32
16D- 16DD-/	(16een\LL	.
16r	16ff\JJ)	.
8B-L 8F 8D-\	8.bb-\L	.
8B-J 8F 8D-\	.	.
.	16aa-\Jk	.
!!LO:LB:g=original
=33	=33	=33
*^	*^	*
4.E-/	8E-\L	16.gg/LL	4.gg\	.
.	.	(32fff/JJk	.	.
.	8d- 8B-\	4eee-/)	.	.
.	8d-J 8B-\	.	.	.
*	*	*v	*v	*
=34	=34	=34	=34
*rep	*rep	*	*
4.E-/	8E-\L	16ee-'\LL	.
.	.	32r	.
.	.	(32ccc\JJk	.
.	8d- 8B-\	8.bb-\L)	.
.	8d-J 8B-\	.	.
.	.	16aa-\Jk	.
*Xrep	*Xrep	*	*
*v	*v	*	*
=35	=35	=35
*tremolo	*	*
8d-L 8B- 8E-\	16.gg'\LL	.
.	(32ff'\K	.
8d- 8B- 8E-\	16.ee-\)	.
.	(32dd-'\K	.
8d-J 8B- 8E-\	16.f\)	.
.	32g\JJk	.
*Xtremolo	*	*
=36	=36	=36
16c 16A-\	(16b-/LL	.
16r	32a-/JJk)	.
.	32r	.
4A- 4E- 4AA-\	4aa- 4cc 4a-^/	.
=37:|!|:	=37:|!|:	=37:|!|:
*>E	*>E	*>E
*tremolo	*	*
(16B-LL 16G 16En\	16cccLL 16cc\	f
16c\	32r	.
.	32ddd-XJJk 32dd-X\	.
16B- 16G 16E\	4ccc 4cc\	.
16c\	.	.
16B- 16G 16E\	.	.
16c\JJ)	.	.
=38	=38	=38
(16A-LL 16F\	16cccLL 16cc\	.
16c\	32r	.
.	32ddd-JJk 32dd-\	.
16A- 16F\	4ccc 4cc\	.
16c\	.	.
16A- 16F\	.	.
16c\JJ)	.	.
!!LO:LB:g=original
=39	=39	=39
!	!LO:TUP:a:problem:klamra łukowa	!
(16BnLL 16A-X 16F\	24ddn^<\LL	.
.	24ff\	.
16dn\	.	.
.	24gg\JJ	.
16B 16A- 16F\	8.aa-\L	.
16d\	.	.
16B 16A- 16F\	.	.
16d\JJ)	16dd\Jk	.
=40	=40	=40
16A-LL 16E-\	(16ff\LL	.
16c\	32ee-\JJk)	.
.	32r	.
16A- 16E-\	4cc\	.
16c\	.	.
16A- 16E-\	.	.
16c\JJ	.	.
*Xtremolo	*	*
=41	=41	=41
*^	*	*
4.E-/	(>16E-\LL	16g/LL	p
.	16d-\	32r	.
.	.	(>32b-'/JJk	.
.	16B-\	4ee- 4g/)	.
.	16d-\	.	.
.	16B-\	.	.
.	16d-\JJ)	.	.
=42	=42	=42	=42
4.A-/	(>16A-\LL	16a-/LL	.
.	16e-\	32r	.
.	.	(32cc'/JJk	.
.	16c\	4ee-\)	.
.	16e-\	.	.
.	16c\	.	.
.	16e-\JJ)	.	.
*v	*v	*	*
=43	=43	=43
*tremolo	*	*
8d-XL 8B- 8E-\	(16.ff-X^<\LL	f
.	32ee-\K)	.
8d- 8B- 8E-\	(16.ffn^<\	.
.	32ee-\K)	.
8d-J 8B- 8E-\	(16.dd-^<\	.
.	32g\JJk)	.
*Xtremolo	*	*
=44	=44	=44
16c 16A-\	(32b-/KLL	.
.	16a-/JJ)	.
16r	.	.
!	!LO:TX:b:B:t=D.C.M.	!
.	32r	.
4A- 4E- 4AA-\	4aa- 4cc 4a-^<\	.
=:|!	=:|!	=:|!
*-	*-	*-
!!!system-decoration: {(s1,s2)}
!!!RDF**kern: > = above
!!!RDF**kern: < = below
!!!AIN: 1 empty
!!!ENC: Marcin Jachim
!!!END: 2021-09-09
!!!ENC: Marta Lawrence
!!!END: 2021-10-23
